; generated by PrusaSlicer 2.4.2+win64 on 2022-08-17 at 14:09:23 UTC

; 

; external perimeters extrusion width = 0.45mm
; perimeters extrusion width = 0.45mm
; infill extrusion width = 0.45mm
; solid infill extrusion width = 0.45mm
; top infill extrusion width = 0.40mm
; support material extrusion width = 0.35mm
; first layer extrusion width = 0.42mm

M73 P0 R32
M73 Q0 S32
M201 X1000 Y1000 Z200 E5000 ; sets maximum accelerations, mm/sec^2
M203 X200 Y200 Z12 E120 ; sets maximum feedrates, mm / sec
M204 P1250 R1250 T1250 ; sets acceleration (P, T) and retract acceleration (R), mm/sec^2
M205 X8.00 Y8.00 Z0.40 E4.50 ; sets the jerk limits, mm/sec
M205 S0 T0 ; sets the minimum extruding and travel feed rate, mm/sec
M107
;TYPE:Custom
M862.3 P "MK3S" ; printer model check
M862.1 P0.4 ; nozzle diameter check
M115 U3.10.1 ; tell printer latest fw version
G90 ; use absolute coordinates
M83 ; extruder relative mode
M104 S230 ; set extruder temp
M140 S85 ; set bed temp
M190 S85 ; wait for bed temp
M109 S230 ; wait for extruder temp
G28 W ; home all without mesh bed level
G80 ; mesh bed leveling
G1 Z0.2 F720
G1 Y-3 F1000 ; go outside print area
G92 E0
G1 X60 E9 F1000 ; intro line
G1 X100 E12.5 F1000 ; intro line
G92 E0
M221 S95

; Don't change E values below. Excessive value can damage the printer.
M907 E430 ; set extruder motor current
G21 ; set units to millimeters
G90 ; use absolute coordinates
M83 ; use relative distances for extrusion
M900 K0.08 ; Filament gcode LA 1.5
M900 K45 ; Filament gcode LA 1.0
M107
;LAYER_CHANGE
;Z:0.2
;HEIGHT:0.2
;BEFORE_LAYER_CHANGE
G92 E0.0
;0.2


M73 P0 R31
G1 E-1 F2100
G1 Z.2 F720
;AFTER_LAYER_CHANGE
;0.2
G1 Z.4
G1 X115.679 Y87.139 F10800
G1 Z.2 F720
G1 E1 F2100
M204 S800
;TYPE:Skirt/Brim
;WIDTH:0.42
G1 F1200
G1 X118.551 Y83.326 E.14967
G1 X119.81 Y82.097 E.05517
G1 X121.031 Y81.295 E.04578
G1 X122.372 Y80.718 E.04578
G1 X123.793 Y80.383 E.04578
G1 X125.251 Y80.299 E.04578
G1 X126.701 Y80.47 E.04578
G1 X128.099 Y80.89 E.04578
G1 X129.404 Y81.546 E.04578
G1 X130.416 Y82.282 E.03924
G1 X131.575 Y83.482 E.05232
G1 X134.401 Y87.245 E.14756
G1 X134.87 Y88.49 E.04171
G1 X137.235 Y119.345 E.97028
G1 X137.242 Y126.4 E.22119
M73 Q0 S31
G1 X136.85 Y127.707 E.04278
G1 X135.143 Y128.761 E.0629
G1 X127.279 Y129.689 E.2483
G1 X122.721 Y129.689 E.14288
G1 X114.857 Y128.761 E.2483
G1 X113.605 Y128.219 E.04278
G1 X112.758 Y126.4 E.0629
G1 X112.758 Y119.527 E.2155
G1 X115.13 Y88.49 E.97597
G1 X115.599 Y87.245 E.04171
G1 X115.643 Y87.187 E.00231
M204 S1000
; printing object TubeSupport.stl id:0 copy 0
;WIPE_START
G1 F8640
G1 X118.118 Y83.9 E-.95
;WIPE_END
G1 E-.05 F2100
G1 Z.4 F720
G1 X117.02 Y121.871 F10800
G1 Z.2 F720
G1 E1 F2100
M204 S800
;TYPE:Support material
G1 F1200
G1 X117.301 Y122.152 E.01247
G1 X118.538 Y122.152 E.03878
G1 X118.619 Y122.801 E.02052
G1 X118.77 Y123.454 E.021
G1 X118.912 Y123.892 E.01444
G1 X119.174 Y124.509 E.02101
G1 X119.502 Y125.102 E.02127
G1 X119.76 Y125.484 E.01444
G1 X120.182 Y126.005 E.02101
G1 X120.57 Y126.4 E.01738
G1 X115.135 Y126.4 E.17041
G1 X115.135 Y119.527 E.2155
G1 X117.02 Y119.527 E.05909
G1 X117.02 Y121.814 E.07171
M204 S1000
G1 X119.553 Y126.23 F10800
M204 S800
G1 F1200
G1 X119.553 Y125.774 E.01432
G1 X119.134 Y125.149 E.0236
G1 X119.134 Y126.061 E.0286
G1 X118.715 Y126.061 E.01314
G1 X118.715 Y124.317 E.05468
G1 X118.447 Y123.559 E.02522
G1 X118.296 Y122.919 E.02059
G1 X118.296 Y126.061 E.0985
G1 X117.877 Y126.061 E.01314
G1 X117.877 Y122.491 E.11192
G1 X117.458 Y122.491 E.01314
G1 X117.458 Y126.061 E.11192
G1 X117.039 Y126.061 E.01314
G1 X117.039 Y122.37 E.11572
G1 X116.681 Y122.011 E.01591
G1 X116.681 Y119.866 E.06725
G1 X116.62 Y119.866 E.00189
G1 X116.62 Y126.061 E.19422
G1 X116.201 Y126.061 E.01314
G1 X116.201 Y119.866 E.19422
G1 X115.783 Y119.866 E.01314
G1 X115.783 Y126.23 E.19954
M204 S1000
;WIPE_START
G1 F8640
G1 X115.783 Y122.116 E-.95
;WIPE_END
G1 E-.05 F2100
G1 Z.4 F720
G1 X126.52 Y126.4 F10800
G1 Z.2 F720
G1 E1 F2100
M204 S800
G1 F1200
G1 X123.48 Y126.4 E.09532
G1 X123.48 Y116.152 E.32132
G1 X126.52 Y116.152 E.09532
M73 Q1 S31
G1 X126.52 Y126.344 E.31955
M204 S1000
M73 P1 R31
G1 X125.838 Y126.23 F10800
M204 S800
G1 F1200
G1 X125.838 Y116.491 E.30536
G1 X125.419 Y116.491 E.01314
G1 X125.419 Y126.061 E.30004
G1 X125 Y126.061 E.01314
G1 X125 Y116.491 E.30004
G1 X124.581 Y116.491 E.01314
G1 X124.581 Y126.061 E.30004
G1 X124.162 Y126.061 E.01314
G1 X124.162 Y116.322 E.30536
M204 S1000
;WIPE_START
G1 F8640
G1 X124.162 Y120.436 E-.95
;WIPE_END
G1 E-.05 F2100
G1 Z.4 F720
G1 X134.865 Y126.4 F10800
G1 Z.2 F720
G1 E1 F2100
M204 S800
G1 F1200
G1 X129.43 Y126.4 E.17041
G1 X129.818 Y126.005 E.01738
G1 X130.24 Y125.484 E.021
G1 X130.498 Y125.102 E.01445
G1 X130.826 Y124.509 E.02127
G1 X131.088 Y123.892 E.021
G1 X131.23 Y123.454 E.01445
G1 X131.381 Y122.801 E.021
G1 X131.462 Y122.152 E.02052
G1 X132.699 Y122.152 E.03878
G1 X132.98 Y121.871 E.01247
G1 X132.98 Y119.527 E.07349
G1 X134.865 Y119.527 E.05909
G1 X134.865 Y126.344 E.21373
M204 S1000
G1 X134.217 Y126.23 F10800
M204 S800
G1 F1200
G1 X134.217 Y119.866 E.19954
G1 X133.799 Y119.866 E.01314
G1 X133.799 Y126.061 E.19422
G1 X133.38 Y126.061 E.01314
G1 X133.38 Y119.866 E.19422
G1 X133.319 Y119.866 E.00189
G1 X133.319 Y122.011 E.06725
G1 X132.961 Y122.37 E.01591
G1 X132.961 Y126.061 E.11571
G1 X132.542 Y126.061 E.01314
G1 X132.542 Y122.491 E.11192
G1 X132.123 Y122.491 E.01314
G1 X132.123 Y126.061 E.11192
G1 X131.704 Y126.061 E.01314
G1 X131.704 Y122.919 E.0985
G1 X131.553 Y123.558 E.02059
G1 X131.285 Y124.317 E.02522
G1 X131.285 Y126.061 E.05468
G1 X130.866 Y126.061 E.01314
G1 X130.866 Y125.149 E.0286
G1 X130.447 Y125.774 E.0236
G1 X130.447 Y126.23 E.01432
M204 S1000
;WIPE_START
G1 F8640
G1 X130.447 Y125.774 E-.10544
G1 X130.866 Y125.149 E-.17378
G1 X130.866 Y126.061 E-.21062
G1 X131.285 Y126.061 E-.09674
G1 X131.285 Y124.487 E-.36342
;WIPE_END
G1 E-.05 F2100
G1 Z.4 F720
G1 X125.507 Y91.716 F10800
G1 Z.2 F720
G1 E1 F2100
M204 S800
;TYPE:Perimeter
G1 F1200
G1 X125.011 Y91.76 E.01563
G1 X124.677 Y91.743 E.01047
G1 X124.358 Y91.692 E.01014
G1 X124.046 Y91.609 E.01013
G1 X123.741 Y91.492 E.01023
G1 X123.282 Y91.238 E.01645
G1 X123.015 Y91.037 E.01047
G1 X122.771 Y90.81 E.01047
G1 X122.441 Y90.401 E.01646
G1 X122.273 Y90.121 E.01023
G1 X122.133 Y89.819 E.01045
G1 X121.981 Y89.324 E.01624
G1 X121.929 Y88.995 E.01046
G1 X121.912 Y88.661 E.01047
G1 X121.958 Y88.138 E.01645
G1 X122.032 Y87.821 E.01023
G1 X122.14 Y87.505 E.01046
G1 X122.379 Y87.038 E.01645
G1 X122.567 Y86.771 E.01023
G1 X122.785 Y86.519 E.01045
G1 X123.176 Y86.179 E.01624
G1 X123.456 Y85.998 E.01046
G1 X123.744 Y85.851 E.01013
G1 X124.046 Y85.735 E.01013
G1 X124.358 Y85.652 E.01013
G1 X124.677 Y85.601 E.01013
G1 X125.003 Y85.584 E.01023
G1 X125.526 Y85.629 E.01645
G1 X125.851 Y85.704 E.01047
G1 X126.157 Y85.809 E.01013
G1 X126.449 Y85.945 E.01013
G1 X126.729 Y86.113 E.01023
G1 X127.146 Y86.449 E.01678
G1 X127.493 Y86.848 E.01658
G1 X127.674 Y87.128 E.01046
G1 X127.821 Y87.416 E.01013
G1 X127.937 Y87.718 E.01013
G1 X128.02 Y88.03 E.01013
G1 X128.071 Y88.349 E.01014
G1 X128.088 Y88.683 E.01047
G1 X128.042 Y89.205 E.01645
G1 X127.968 Y89.523 E.01023
G1 X127.863 Y89.829 E.01013
G1 X127.726 Y90.122 E.01013
G1 X127.555 Y90.408 E.01046
G1 X127.229 Y90.81 E.01624
G1 X126.985 Y91.037 E.01046
G1 X126.727 Y91.232 E.01013
G1 X126.45 Y91.398 E.01013
G1 X126.157 Y91.535 E.01013
G1 X125.851 Y91.64 E.01013
G1 X125.566 Y91.706 E.00917
M204 S1000
G1 X125.474 Y91.341 F10800
M204 S800
;TYPE:External perimeter
G1 F1200
G1 X125.004 Y91.382 E.0148
G1 X124.717 Y91.367 E.00901
G1 X124.436 Y91.323 E.0089
G1 X124.163 Y91.25 E.00889
G1 X123.901 Y91.149 E.0088
G1 X123.487 Y90.921 E.0148
G1 X123.258 Y90.748 E.00902
G1 X123.048 Y90.552 E.00901
G1 X122.751 Y90.185 E.0148
G1 X122.607 Y89.944 E.00879
G1 X122.485 Y89.684 E.00901
G1 X122.349 Y89.239 E.01458
G1 X122.305 Y88.955 E.00901
G1 X122.289 Y88.668 E.00901
G1 X122.331 Y88.198 E.0148
G1 X122.395 Y87.925 E.0088
G1 X122.488 Y87.653 E.00901
G1 X122.703 Y87.233 E.01479
G1 X122.864 Y87.003 E.0088
G1 X123.053 Y86.786 E.00901
G1 X123.404 Y86.481 E.01458
G1 X123.645 Y86.325 E.00901
G1 X123.898 Y86.196 E.0089
G1 X124.162 Y86.094 E.00889
G1 X124.436 Y86.021 E.00889
G1 X124.717 Y85.976 E.00889
G1 X124.997 Y85.962 E.0088
G1 X125.467 Y86.002 E.0148
G1 X125.747 Y86.067 E.00902
G1 X126.015 Y86.159 E.0089
G1 X126.272 Y86.279 E.00889
G1 X126.513 Y86.423 E.00879
G1 X126.883 Y86.722 E.01491
G1 X127.191 Y87.076 E.01471
G1 X127.347 Y87.317 E.00901
G1 X127.476 Y87.57 E.0089
G1 X127.578 Y87.834 E.00889
G1 X127.651 Y88.108 E.00889
G1 X127.695 Y88.389 E.0089
G1 X127.711 Y88.676 E.00901
G1 X127.669 Y89.146 E.0148
G1 X127.605 Y89.419 E.0088
G1 X127.513 Y89.687 E.00889
G1 X127.393 Y89.944 E.00889
G1 X127.245 Y90.191 E.00901
G1 X126.952 Y90.552 E.01458
G1 X126.742 Y90.748 E.00901
G1 X126.516 Y90.919 E.0089
G1 X126.272 Y91.065 E.0089
G1 X126.015 Y91.185 E.00889
G1 X125.747 Y91.277 E.00889
G1 X125.532 Y91.327 E.00691
M204 S1000
G1 X125.329 Y91.713 F10800
;WIPE_START
G1 F8640
G1 X125.004 Y91.382 E-.1227
G1 X124.717 Y91.367 E-.06639
G1 X124.436 Y91.323 E-.06551
G1 X124.163 Y91.25 E-.06549
G1 X123.901 Y91.149 E-.06477
G1 X123.487 Y90.921 E-.10896
G1 X123.258 Y90.748 E-.0664
G1 X123.048 Y90.552 E-.06639
G1 X122.751 Y90.185 E-.10897
G1 X122.607 Y89.944 E-.06477
G1 X122.485 Y89.684 E-.06634
G1 X122.38 Y89.339 E-.08333
;WIPE_END
G1 E-.05 F2100
G1 Z.4 F720
G1 X130.242 Y89.459 F10800
G1 Z.2 F720
G1 E1 F2100
M204 S800
;TYPE:Perimeter
G1 F1200
G1 X131.713 Y89.459 E.04614
G1 X131.713 Y120.885 E.98534
G1 X130.233 Y120.885 E.04639
G1 X130.2 Y122.037 E.03615
G1 X130.162 Y122.397 E.01135
G1 X130.099 Y122.756 E.01141
G1 X130.011 Y123.109 E.01141
G1 X129.898 Y123.455 E.01141
G1 X129.762 Y123.792 E.01141
G1 X129.602 Y124.119 E.01141
G1 X129.42 Y124.434 E.01141
G1 X129.217 Y124.736 E.01141
G1 X128.993 Y125.023 E.01141
G1 X128.753 Y125.289 E.01125
G1 X128.347 Y125.668 E.01743
G1 X127.787 Y126.076 E.0217
G1 X127.787 Y114.885 E.35088
G1 X122.213 Y114.885 E.17477
G1 X122.213 Y126.076 E.35088
G1 X121.649 Y125.665 E.02186
G1 X121.383 Y125.425 E.01125
G1 X121.004 Y125.018 E.01743
G1 X120.783 Y124.736 E.01125
G1 X120.58 Y124.434 E.01141
G1 X120.398 Y124.119 E.01141
G1 X120.238 Y123.792 E.01141
G1 X120.102 Y123.455 E.01141
G1 X119.989 Y123.109 E.01141
G1 X119.901 Y122.756 E.01141
G1 X119.838 Y122.397 E.01141
G1 X119.8 Y122.037 E.01135
G1 X119.767 Y120.885 E.03615
G1 X118.287 Y120.885 E.04639
G1 X118.287 Y89.459 E.98534
G1 X119.758 Y89.459 E.04614
G1 X119.817 Y88.125 E.04188
G1 X119.902 Y87.588 E.01703
G1 X120.043 Y87.061 E.01711
G1 X120.239 Y86.552 E.0171
G1 X120.486 Y86.066 E.01711
G1 X120.783 Y85.608 E.0171
G1 X121.13 Y85.18 E.01727
G1 X121.379 Y84.922 E.01125
G1 X121.646 Y84.682 E.01125
G1 X122.09 Y84.348 E.01743
G1 X122.394 Y84.158 E.01125
G1 X122.71 Y83.989 E.01125
G1 X123.217 Y83.774 E.01727
G1 X123.744 Y83.613 E.01727
G1 X124.09 Y83.54 E.01109
G1 X124.641 Y83.472 E.01742
G1 X124.999 Y83.46 E.01124
G1 X125.55 Y83.489 E.01728
G1 X125.905 Y83.539 E.01125
G1 X126.256 Y83.613 E.01125
G1 X126.783 Y83.774 E.01727
G1 X127.29 Y83.989 E.01727
G1 X127.602 Y84.155 E.01108
G1 X128.068 Y84.458 E.01743
G1 X128.346 Y84.676 E.01108
G1 X128.753 Y85.055 E.01743
G1 X128.993 Y85.321 E.01125
G1 X129.214 Y85.604 E.01124
G1 X129.514 Y86.066 E.01727
G1 X129.761 Y86.552 E.01711
G1 X129.957 Y87.061 E.01711
G1 X130.098 Y87.588 E.01711
G1 X130.183 Y88.125 E.01703
G1 X130.239 Y89.399 E.04
M204 S1000
G1 X130.602 Y89.082 F10800
M204 S800
;TYPE:External perimeter
G1 F1200
G1 X132.09 Y89.082 E.04664
G1 X132.09 Y121.262 E1.00898
G1 X130.599 Y121.262 E.04673
G1 X130.576 Y122.062 E.02511
G1 X130.535 Y122.45 E.01221
G1 X130.468 Y122.834 E.01223
G1 X130.373 Y123.213 E.01223
G1 X130.253 Y123.584 E.01223
G1 X130.107 Y123.946 E.01223
G1 X129.936 Y124.296 E.01223
G1 X129.74 Y124.634 E.01223
G1 X129.522 Y124.958 E.01223
G1 X129.282 Y125.265 E.01223
G1 X129.022 Y125.554 E.01217
G1 X128.592 Y125.955 E.01846
G1 X128.286 Y126.194 E.01218
G1 X127.962 Y126.412 E.01223
G1 X127.626 Y126.607 E.01218
G1 X127.41 Y126.708 E.00747
G1 X127.41 Y115.262 E.35887
M73 Q2 S31
G1 X122.59 Y115.262 E.15113
M73 P2 R31
G1 X122.59 Y126.708 E.35887
G1 X122.374 Y126.607 E.00747
G1 X122.038 Y126.412 E.01218
G1 X121.714 Y126.194 E.01223
G1 X121.407 Y125.954 E.01223
G1 X121.118 Y125.694 E.01217
G1 X120.717 Y125.264 E.01846
G1 X120.478 Y124.958 E.01218
G1 X120.26 Y124.634 E.01223
G1 X120.064 Y124.296 E.01223
G1 X119.893 Y123.946 E.01223
G1 X119.747 Y123.584 E.01223
G1 X119.627 Y123.213 E.01223
G1 X119.532 Y122.834 E.01223
G1 X119.465 Y122.45 E.01223
G1 X119.424 Y122.062 E.01221
G1 X119.401 Y121.262 E.02511
G1 X117.91 Y121.262 E.04673
G1 X117.91 Y89.082 E1.00898
G1 X119.398 Y89.082 E.04664
G1 X119.441 Y88.087 E.03123
G1 X119.532 Y87.51 E.01832
G1 X119.684 Y86.945 E.01835
G1 X119.894 Y86.398 E.01834
G1 X120.159 Y85.877 E.01835
G1 X120.478 Y85.386 E.01834
G1 X120.847 Y84.93 E.0184
G1 X121.117 Y84.651 E.01217
G1 X121.406 Y84.391 E.01218
G1 X121.876 Y84.037 E.01846
G1 X122.205 Y83.831 E.01218
G1 X122.548 Y83.649 E.01218
G1 X123.088 Y83.419 E.0184
G1 X123.649 Y83.248 E.0184
G1 X124.028 Y83.167 E.01212
G1 X124.612 Y83.096 E.01846
G1 X125.003 Y83.082 E.01227
G1 X125.586 Y83.113 E.01831
G1 X125.971 Y83.167 E.01218
G1 X126.351 Y83.248 E.01218
G1 X126.912 Y83.419 E.0184
G1 X127.452 Y83.649 E.0184
G1 X127.793 Y83.83 E.01212
G1 X128.287 Y84.151 E.01846
G1 X128.592 Y84.389 E.01212
G1 X129.022 Y84.79 E.01846
G1 X129.282 Y85.079 E.01218
G1 X129.521 Y85.385 E.01217
G1 X129.841 Y85.877 E.0184
G1 X130.106 Y86.398 E.01834
G1 X130.316 Y86.945 E.01835
G1 X130.468 Y87.51 E.01834
G1 X130.559 Y88.087 E.01832
G1 X130.6 Y89.022 E.02935
M204 S1000
G1 X130.614 Y89.482 F10800
;WIPE_START
G1 F8640
G1 X132.09 Y89.082 E-.34436
G1 X132.09 Y91.705 E-.60564
;WIPE_END
G1 E-.05 F2100
G1 Z.4 F720
G1 X129.842 Y87.077 F10800
G1 Z.2 F720
G1 E1 F2100
M204 S800
;TYPE:Solid infill
;WIDTH:0.420097
G1 F1200
G1 X126.893 Y84.128 E.13081
G1 X126.686 Y84.04 E.00705
G1 X126.1 Y83.869 E.01913
G1 X129.8 Y87.569 E.1641
G1 X129.904 Y88.206 E.02023
G1 X125.465 Y83.767 E.19686
G1 X124.91 Y83.746 E.01742
G1 X130.106 Y88.941 E.23044
M204 S1000
G1 X130.736 Y89.572 F10800
M204 S800
G1 F1200
G1 X131.43 Y90.266 E.03077
G1 X131.43 Y90.799 E.01673
G1 X130.373 Y89.742 E.0469
G1 X129.971 Y89.742 E.01261
G1 X129.952 Y89.321 E.0132
G1 X128.172 Y87.541 E.07898
G1 X128.08 Y87.301 E.00806
G1 X127.919 Y86.986 E.01107
G1 X127.719 Y86.678 E.01154
G1 X127.343 Y86.245 E.01798
G1 X126.892 Y85.881 E.01818
G1 X126.582 Y85.695 E.01131
G1 X126.132 Y85.501 E.01537
G1 X124.416 Y83.785 E.07614
G1 X123.955 Y83.857 E.01462
G1 X125.434 Y85.337 E.06562
G1 X125.007 Y85.3 E.01344
G1 X124.872 Y85.307 E.00427
G1 X123.536 Y83.972 E.05921
G1 X123.143 Y84.113 E.01309
G1 X124.391 Y85.36 E.05532
G1 X123.962 Y85.465 E.01384
G1 X122.773 Y84.276 E.05272
G1 X122.432 Y84.468 E.01229
G1 X123.581 Y85.617 E.05097
G1 X123.235 Y85.804 E.01234
G1 X122.114 Y84.684 E.04971
G1 X121.811 Y84.914 E.01194
G1 X122.922 Y86.025 E.04929
G1 X122.637 Y86.273 E.01186
G1 X121.533 Y85.17 E.04895
G1 X121.278 Y85.447 E.01184
G1 X122.382 Y86.552 E.04899
G1 X122.158 Y86.861 E.01198
G1 X121.039 Y85.742 E.04963
G1 X120.826 Y86.062 E.01206
G1 X121.974 Y87.21 E.05091
G1 X121.88 Y87.394 E.00648
G1 X121.814 Y87.584 E.0063
G1 X120.632 Y86.402 E.05242
G1 X120.497 Y86.667 E.00933
G1 X120.46 Y86.764 E.00324
G1 X121.699 Y88.003 E.05496
G1 X121.644 Y88.48 E.01509
G1 X120.312 Y87.149 E.05905
G1 X120.2 Y87.57 E.01366
G1 X121.647 Y89.017 E.0642
G1 X121.705 Y89.388 E.01177
G1 X121.802 Y89.706 E.01042
G1 X119.971 Y87.875 E.08122
M204 S1000
;WIPE_START
G1 F8640
G1 X121.802 Y89.706 E-.59795
G1 X121.705 Y89.388 E-.07674
G1 X121.647 Y89.017 E-.08664
G1 X121.069 Y88.439 E-.18867
;WIPE_END
G1 E-.05 F2100
G1 Z.4 F720
G1 X128.136 Y88.039 F10800
G1 Z.2 F720
G1 E1 F2100
M204 S800
G1 F1200
G1 X131.43 Y91.333 E.14609
G1 X131.43 Y91.866 E.01673
G1 X128.362 Y88.798 E.13608
G1 X128.314 Y89.283 E.0153
G1 X131.43 Y92.399 E.1382
G1 X131.43 Y92.933 E.01673
G1 X128.204 Y89.707 E.14308
